src/images/landing-logo.svg

<svg fill="none" height="320" viewBox="0 0 320 320" width="320" xmlns="http://www.w3.org/2000/svg"><path clip-rule="evenodd" d="m319.996 159.628c0 3.732-.128 7.433-.38 11.101v68.146.379 1.121.379 77.746 1.5h-1.5-77.65-.379-1.121-.379-77.649-.38-1.12-.38-77.6497-.3796-1.1204-.3796-77.64923-1.5v-1.5-77.746-.379-1.121-.379-68.166c-.251599-3.661-.37947-7.356-.37947-11.081 0-3.724.127871-7.419.37947-11.081v-67.0434-.3786h-.000488v-1.5-77.74641-1.5h1.499998 77.64922 1.5v.000468h.3802 67.4766c3.672-.251326 7.378-.379058 11.113-.379058 3.736 0 7.442.127732 11.113.379058h67.476.38 1.12.38 77.649 1.5v1.500002 77.74644 1.5.3781 67.0244c.252 3.668.38 7.369.38 11.1zm-1.88-78.1244v53.5724c-2.971-19.201-9.372-37.2729-18.559-53.5724zm0 67.0774c-1.68-24.276-8.851-47.044-20.283-67.0774h-57.367v77.7464h77.65zm0-68.9555h-19.634c-13.956-23.9941-33.997-44.0275-58.015-57.9981v-19.74834h77.649zm-21.372 0c-13.657-23.1845-33.069-42.5889-56.277-56.2599v56.2599zm-58.157-77.74644v18.67194c-16.407-9.2479-34.613-15.68956-53.963-18.67194zm0 20.39654c-20.152-11.5009-43.077-18.71498-67.528-20.39654h-10.122v77.74644h77.65zm-157.1786-20.39654h53.9646c-19.351 2.98246-37.5577 9.42444-53.9646 18.67264zm67.5286 0c-24.451 1.6816-47.377 8.89594-67.5286 20.39734v57.3491h77.6496v-77.74644zm-69.4088-.00047v19.74981c-24.0176 13.9704-44.0579 34.0033-58.0135 57.9966h-19.63572v-77.74641zm0 21.48801c-23.2074 13.6709-42.6184 33.0747-56.2751 56.2584h56.2751zm-77.64873 58.137h18.55953c-9.1878 16.3019-15.58912 34.3764-18.55953 53.5814zm0 79.6254v9.528c1.70816 24.737 9.11913 47.909 20.93073 68.218h56.7185v-77.746zm0 77.746v-54.703c3.03872 19.646 9.66793 38.11 19.19783 54.703zm0 1.879h20.29383c13.9243 23.496 33.7129 43.122 57.3554 56.875v20.871h-77.64923zm79.52883 77.746v-19.795c18.9127 10.661 40.2177 17.593 62.9107 19.795zm0-21.52c22.9097 13.076 49.4037 20.61 77.6497 20.774v-77h-77.6497zm157.1787 21.52h-62.909c22.692-2.202 43.996-9.134 62.909-19.794zm-77.649-.746c28.245-.163 54.74-7.698 77.649-20.773v-56.227h-77.649zm79.528.746v-20.871c23.643-13.752 43.433-33.379 57.357-56.875h20.293v77.746zm0-22.609c22.833-13.45 41.991-32.449 55.61-55.137h-55.61zm0-57.016h56.72c11.809-20.303 19.219-43.469 20.93-68.199v-9.547h-77.65zm77.65-54.695c-3.04 19.644-9.668 38.104-19.197 54.695h19.197zm-294.1958 56.574c13.6185 22.688 32.7761 41.687 55.6085 55.136v-55.136zm-1.7564-159.2504c-11.4355 20.0384-18.60754 42.8134-20.28433 67.0964v10.65h77.64923v-77.7464zm59.2445 0h77.6497v5.1192h-34.031-5.64-20.3064v72.6272h-17.6723zm17.6723 79.6254h-17.6723v77.746h77.6497v-77.746h-34.031v72.059h-25.9464zm25.9464-1.879h34.031v-46.696h-34.031zm35.911-72.6272h37.415 5.641 20.306v72.6272h14.287v-77.7464h-77.649zm63.362 74.5062h14.287v77.746h-77.649v-77.746h37.415v72.059h25.947zm-25.947-1.879v-46.696h-37.415v46.696z" fill="#fff" fill-rule="evenodd" opacity=".2"/></svg>

<svg width="320" height="320" viewBox="0 0 320 320" fill="none" xmlns="http://www.w3.org/2000/svg">
<path opacity="0.2" fill-rule="evenodd" clip-rule="evenodd" d="M319.996 159.628C319.996 163.36 319.868 167.061 319.616 170.729V238.875V239.254V240.375V240.754V318.5V320H318.116H240.466H240.087H238.966H238.587H160.938H160.558H159.438H159.058H81.4083H81.0287H79.9083H79.5287H1.87947H0.37947V318.5V240.754V240.375V239.254V238.875V170.709C0.127871 167.048 0 163.353 0 159.628C0 155.904 0.127871 152.209 0.37947 148.547V81.5036V81.125H0.378982V79.625V1.87859V0.37859H1.87898H79.5282H81.0282V0.379058H81.4084H148.885C152.557 0.127732 156.263 0 159.998 0C163.734 0 167.44 0.127732 171.111 0.379058H238.587H238.967H240.087H240.467H318.116H319.616V1.87906V79.6255V81.1255L319.616 81.5036V148.528C319.868 152.196 319.996 155.897 319.996 159.628ZM318.116 81.5036V135.076C315.145 115.875 308.744 97.8031 299.557 81.5036H318.116ZM318.116 148.581C316.436 124.305 309.265 101.537 297.833 81.5036H240.466V159.25H318.116V148.581ZM318.116 79.6255H298.482C284.526 55.6314 264.485 35.598 240.467 21.6274V1.87906H318.116V79.6255ZM296.744 79.6255C283.087 56.441 263.675 37.0366 240.467 23.3656V79.6255H296.744ZM238.587 1.87906V20.551C222.18 11.3031 203.974 4.86144 184.624 1.87906H238.587ZM238.587 22.2756C218.435 10.7747 195.51 3.56062 171.059 1.87906H160.937V79.6255H238.587V22.2756ZM81.4084 1.87906H135.373C116.022 4.86152 97.8153 11.3035 81.4084 20.5517V1.87906ZM148.937 1.87906C124.486 3.56066 101.56 10.775 81.4084 22.2764V79.6255H159.058V1.87906H148.937ZM79.5282 1.87859V21.6284C55.5106 35.5988 35.4703 55.6317 21.5147 79.625H1.87898V1.87859H79.5282ZM79.5282 23.3666C56.3208 37.0375 36.9098 56.4413 23.2531 79.625H79.5282V23.3666ZM1.87947 81.5036H20.439C11.2512 97.8055 4.84988 115.88 1.87947 135.085V81.5036ZM1.87947 161.129V170.657C3.58763 195.394 10.9986 218.566 22.8102 238.875H79.5287V161.129H1.87947ZM1.87947 238.875V184.172C4.91819 203.818 11.5474 222.282 21.0773 238.875H1.87947ZM1.87947 240.754H22.1733C36.0976 264.25 55.8862 283.876 79.5287 297.629V318.5H1.87947V240.754ZM81.4083 318.5V298.705C100.321 309.366 121.626 316.298 144.319 318.5H81.4083ZM81.4083 296.98C104.318 310.056 130.812 317.59 159.058 317.754V240.754H81.4083V296.98ZM238.587 318.5H175.678C198.37 316.298 219.674 309.366 238.587 298.706V318.5ZM160.938 317.754C189.183 317.591 215.678 310.056 238.587 296.981V240.754H160.938V317.754ZM240.466 318.5V297.629C264.109 283.877 283.899 264.25 297.823 240.754H318.116V318.5H240.466ZM240.466 295.891C263.299 282.441 282.457 263.442 296.076 240.754H240.466V295.891ZM240.466 238.875H297.186C308.995 218.572 316.405 195.406 318.116 170.676V161.129H240.466V238.875ZM318.116 184.18C315.076 203.824 308.448 222.284 298.919 238.875H318.116V184.18ZM23.9202 240.754C37.5387 263.442 56.6963 282.441 79.5287 295.89V240.754H23.9202ZM22.1638 81.5036C10.7283 101.542 3.55626 124.317 1.87947 148.6V159.25H79.5287V81.5036H22.1638ZM81.4083 81.5036H159.058V86.6228H125.027H119.387H99.0806V159.25H81.4083V81.5036ZM99.0806 161.129H81.4083V238.875H159.058V161.129H125.027V233.188H99.0806V161.129ZM125.027 159.25H159.058V112.554H125.027V159.25ZM160.938 86.6228H198.353H203.994H224.3V159.25H238.587V81.5036H160.938V86.6228ZM224.3 161.129H238.587V238.875H160.938V161.129H198.353V233.188H224.3V161.129ZM198.353 159.25V112.554H160.938V159.25H198.353Z" fill="white"/>
</svg>
